X: 39058
T: Swedish Lullaby
R: waltz
M: 3/4
K: Eminor
|:BA GA Bc|B4 B2|BA GA Bc|A4 A2|
AG FG AB|A4 A2|AG FG AB|G4 G2|
BA GA Bc|B4 B2|BA GA Bc|A4 A2|
AG FG AB|A4 B2|c4 d2|B6||
|:GF EF GA|F6|FE ^DE FG|E6|
GF EF GA|F6|eB AG FG|E6:|

